X:1
T:Beaux of London City
M:9/8
C:
N:
A:Adderbury
O:English
R:Slip Jig
%P:Ch(AB)$^6$
Q:1/4=165
P:A.(AB)6
K:G
P:A
|: D | G2G BAG Bd2 | G2G  BAG A2 D |
       | G2G BAG Bd2 | GDG B2A  G2 :|
P:B
|: z | d2c  BAG Bd2   | A2A  A2B  c3 |
       d2c  BAG B<d D | GDG B2A  G2 :|
